; HEADER_BLOCK_START
; generated by OrcaSlicer 2.3.0 on 2025-11-29 at 14:54:00
; total layer number: 69
;_GP_TOTAL_LAYER_NUMBER_PLACEHOLDER
; filament_density: 1.04
; filament_diameter: 1.75
; max_z_height: 11.04
; HEADER_BLOCK_END

; THUMBNAIL_BLOCK_START

;
; THUMBNAIL_BLOCK_END

; THUMBNAIL_BLOCK_START

;
; THUMBNAIL_BLOCK_END

; external perimeters extrusion width = 0.42mm
; perimeters extrusion width = 0.45mm
; infill extrusion width = 0.45mm
; solid infill extrusion width = 0.42mm
; top infill extrusion width = 0.42mm
; first layer extrusion width = 0.50mm

; EXECUTABLE_BLOCK_START
EXCLUDE_OBJECT_DEFINE NAME=втулка_большей_шестерни.stp_id_0_copy_0 CENTER=110,110 POLYGON=[[107,110],[107.006,109.812],[107.024,109.624],[107.053,109.438],[107.094,109.254],[107.147,109.073],[107.211,108.896],[107.286,108.723],[107.371,108.555],[107.467,108.393],[107.573,108.237],[107.688,108.088],[107.813,107.946],[107.946,107.813],[108.088,107.688],[108.237,107.573],[108.393,107.467],[108.555,107.371],[108.723,107.286],[108.896,107.211],[109.073,107.147],[109.254,107.094],[109.438,107.053],[109.624,107.024],[109.812,107.006],[110,107],[110.188,107.006],[110.376,107.024],[110.562,107.053],[110.746,107.094],[110.927,107.147],[111.104,107.211],[111.277,107.286],[111.445,107.371],[111.607,107.467],[111.763,107.573],[111.912,107.688],[112.054,107.813],[112.187,107.946],[112.312,108.088],[112.427,108.237],[112.533,108.393],[112.629,108.555],[112.714,108.723],[112.789,108.896],[112.853,109.073],[112.906,109.254],[112.947,109.438],[112.976,109.624],[112.994,109.812],[113,110],[112.994,110.188],[112.976,110.376],[112.947,110.562],[112.906,110.746],[112.853,110.927],[112.789,111.104],[112.714,111.277],[112.629,111.445],[112.533,111.607],[112.427,111.763],[112.312,111.912],[112.187,112.054],[112.054,112.187],[111.912,112.312],[111.763,112.427],[111.607,112.533],[111.445,112.629],[111.277,112.714],[111.104,112.789],[110.927,112.853],[110.746,112.906],[110.562,112.947],[110.376,112.976],[110.188,112.994],[110,113],[109.812,112.994],[109.624,112.976],[109.438,112.947],[109.254,112.906],[109.073,112.853],[108.896,112.789],[108.723,112.714],[108.555,112.629],[108.393,112.533],[108.237,112.427],[108.088,112.312],[107.946,112.187],[107.813,112.054],[107.688,111.912],[107.573,111.763],[107.467,111.607],[107.371,111.445],[107.286,111.277],[107.211,111.104],[107.147,110.927],[107.094,110.746],[107.053,110.562],[107.024,110.376],[107.006,110.188],[107,110]]
M73 P0 R1
M106 S0
M106 P2 S0
;TYPE:Custom
M140 S0
M104 S0 
START_PRINT EXTRUDER_TEMP=260 BED_TEMP=105
G90
G21
M83 ; use relative distances for extrusion
; Filament gcode
M106 S0
M106 P2 S0
;LAYER_CHANGE
;Z:0.16
;HEIGHT:0.16
;BEFORE_LAYER_CHANGE
;0.16
G92 E0

G1 E-.6 F2400
;_SET_FAN_SPEED_CHANGING_LAYER
SET_VELOCITY_LIMIT ACCEL=500 ACCEL_TO_DECEL=250
SET_VELOCITY_LIMIT SQUARE_CORNER_VELOCITY=9
EXCLUDE_OBJECT_START NAME=втулка_большей_шестерни.stp_id_0_copy_0
G1 Z.36 F30000
G1 X104.742 Y104.62
G1 Z.36
M73 P1 R1
G1 Z.16
G1 E.6 F2400
;TYPE:Brim
;WIDTH:0.5
G1 F3600
G1 X105.311 Y104.118 E.02177
G1 X105.688 Y103.836 E.01349
G1 X106.082 Y103.578 E.01351
G1 X106.662 Y103.259 E.01899
G1 X107.357 Y102.957 E.02173
G1 X107.984 Y102.753 E.01893
G1 X108.723 Y102.587 E.02173
G1 X109.378 Y102.503 E.01892
G1 X110.162 Y102.479 E.02251
G1 X110.606 Y102.502 E.01275
G1 X111.074 Y102.554 E.01352
G1 X111.725 Y102.678 E.01899
G1 X112.452 Y102.888 E.02172
G1 X113.047 Y103.123 E.01834
G1 X113.742 Y103.474 E.02232
G1 X114.282 Y103.815 E.01833
G1 X114.91 Y104.301 E.02278
G1 X115.38 Y104.742 E.01847
G1 X115.881 Y105.31 E.02173
G1 X116.27 Y105.843 E.01892
G1 X116.663 Y106.509 E.02218
G1 X116.938 Y107.092 E.01848
G1 X117.195 Y107.806 E.02178
G1 X117.319 Y108.259 E.01349
G1 X117.413 Y108.721 E.01351
G1 X117.497 Y109.378 E.01899
G1 X117.521 Y110.135 E.02173
G1 X117.481 Y110.794 E.01893
M73 P2 R1
G1 X117.363 Y111.542 E.02173
G1 X117.199 Y112.181 E.01893
G1 X116.943 Y112.894 E.02173
G1 X116.663 Y113.492 E.01893
G1 X116.278 Y114.144 E.02173
G1 X115.89 Y114.68 E.01899
G1 X115.585 Y115.04 E.01352
G1 X115.27 Y115.368 E.01305
G1 X114.691 Y115.881 E.02218
G1 X114.157 Y116.27 E.01895
G1 X113.491 Y116.663 E.02218
G1 X112.908 Y116.938 E.01848
G1 X112.196 Y117.195 E.02173
G1 X111.557 Y117.36 E.01892
G1 X110.792 Y117.481 E.02222
G1 X110.338 Y117.515 E.01304
G1 X109.867 Y117.521 E.01352
G1 X109.206 Y117.481 E.01899
G1 X108.458 Y117.363 E.02173
G1 X107.819 Y117.199 E.01892
G1 X107.09 Y116.937 E.02222
G1 X106.676 Y116.749 E.01304
G1 X106.26 Y116.527 E.01351
G1 X105.701 Y116.173 E.01899
G1 X105.09 Y115.699 E.02218
G1 X104.62 Y115.258 E.01848
G1 X104.119 Y114.69 E.02173
G1 X103.73 Y114.157 E.01892
G1 X103.336 Y113.49 E.02222
G1 X103.137 Y113.081 E.01304
G1 X102.958 Y112.645 E.01352
G1 X102.753 Y112.016 E.01899
G1 X102.583 Y111.256 E.02234
G1 X102.503 Y110.622 E.01833
G1 X102.479 Y109.865 E.02172
G1 X102.519 Y109.206 E.01893
G1 X102.637 Y108.457 E.02177
G1 X102.748 Y107.999 E.01349
G1 X102.888 Y107.549 E.01351
G1 X103.131 Y106.934 E.01899
G1 X103.474 Y106.258 E.02173
G1 X103.827 Y105.701 E.01893
G1 X104.291 Y105.102 E.02173
G1 X104.715 Y104.649 E.01778
G1 X105.055 Y104.968 F30000
G1 F3600
G1 X105.072 Y104.95 E.00071
G1 X105.609 Y104.476 E.02057
G1 X105.958 Y104.215 E.01249
G1 X106.318 Y103.98 E.01231
G1 X106.873 Y103.675 E.0182
G1 X107.516 Y103.396 E.02009
G1 X108.114 Y103.201 E.01805
G1 X108.81 Y103.045 E.02047
G1 X109.421 Y102.968 E.01765
G1 X110.163 Y102.946 E.0213
G1 X110.572 Y102.967 E.01176
G1 X111 Y103.015 E.01233
G1 X111.61 Y103.13 E.01782
G1 X112.296 Y103.328 E.02047
G1 X112.85 Y103.545 E.01709
G1 X113.506 Y103.876 E.02106
G1 X114.009 Y104.194 E.01706
G1 X114.602 Y104.652 E.02151
M73 P3 R1
G1 X115.049 Y105.071 E.01759
G1 X115.513 Y105.597 E.0201
G1 X115.876 Y106.094 E.01765
G1 X116.248 Y106.721 E.02092
G1 X116.509 Y107.276 E.0176
G1 X116.753 Y107.951 E.02058
G1 X116.866 Y108.372 E.01249
G1 X116.952 Y108.792 E.01231
G1 X117.032 Y109.421 E.0182
G1 X117.055 Y110.135 E.02047
G1 X117.016 Y110.749 E.01767
G1 X116.905 Y111.454 E.02047
G1 X116.751 Y112.051 E.01767
G1 X116.51 Y112.722 E.02047
G1 X116.248 Y113.28 E.01767
G1 X115.884 Y113.894 E.02047
G1 X115.519 Y114.397 E.01782
G1 X115.242 Y114.724 E.01232
G1 X114.951 Y115.028 E.01206
G1 X114.404 Y115.513 E.02097
G1 X113.906 Y115.876 E.01768
G1 X113.279 Y116.248 E.02092
G1 X112.724 Y116.509 E.0176
G1 X112.065 Y116.747 E.0201
G1 X111.456 Y116.904 E.01803
G1 X110.732 Y117.018 E.02102
G1 X110.313 Y117.05 E.01204
G1 X109.884 Y117.056 E.01232
G1 X109.251 Y117.016 E.0182
G1 X108.546 Y116.905 E.02047
G1 X107.95 Y116.752 E.01766
G1 X107.26 Y116.503 E.02101
G1 X106.878 Y116.329 E.01205
G1 X106.499 Y116.127 E.01232
G1 X105.974 Y115.795 E.0178
G1 X105.398 Y115.348 E.02092
G1 X104.951 Y114.929 E.0176
G1 X104.487 Y114.403 E.0201
G1 X104.116 Y113.895 E.01803
G1 X103.744 Y113.264 E.02101
G1 X103.561 Y112.886 E.01205
G1 X103.397 Y112.489 E.01232
G1 X103.201 Y111.886 E.01818
G1 X103.042 Y111.17 E.02107
G1 X102.968 Y110.579 E.01708
G1 X102.945 Y109.865 E.02047
G1 X102.984 Y109.251 E.01767
G1 X103.096 Y108.542 E.02057
G1 X103.199 Y108.119 E.01249
G1 X103.326 Y107.709 E.01231
G1 X103.553 Y107.131 E.01782
G1 X103.876 Y106.495 E.02047
G1 X104.205 Y105.974 E.01767
G1 X104.642 Y105.409 E.02047
G1 X105.027 Y104.997 E.01619
G1 X105.368 Y105.316 F30000
G1 F3600
G1 X105.401 Y105.28 E.00141
G1 X105.911 Y104.832 E.01949
G1 X106.55 Y104.385 E.02234
G1 X107.085 Y104.09 E.01753
G1 X107.675 Y103.834 E.01846
G1 X108.244 Y103.649 E.01716
G1 X108.897 Y103.503 E.0192
G1 X109.464 Y103.432 E.01638
M73 P4 R1
G1 X110.164 Y103.412 E.02009
G1 X110.925 Y103.475 E.02191
G1 X111.496 Y103.582 E.01665
G1 X112.14 Y103.767 E.01922
G1 X112.654 Y103.969 E.01584
G1 X113.27 Y104.279 E.0198
G1 X113.736 Y104.572 E.01579
G1 X114.295 Y105.003 E.02023
G1 X114.719 Y105.401 E.0167
G1 X115.146 Y105.884 E.01848
G1 X115.483 Y106.345 E.01638
G1 X115.833 Y106.934 E.01965
G1 X116.081 Y107.461 E.01672
G1 X116.311 Y108.101 E.0195
G1 X116.491 Y108.859 E.02234
G1 X116.568 Y109.465 E.01752
G1 X116.588 Y110.134 E.0192
G1 X116.552 Y110.705 E.01641
G1 X116.446 Y111.366 E.01921
G1 X116.304 Y111.92 E.01641
G1 X116.076 Y112.55 E.01921
G1 X115.832 Y113.067 E.01641
G1 X115.491 Y113.643 E.01921
G1 X115.147 Y114.116 E.01677
G1 X114.624 Y114.696 E.02239
G1 X114.117 Y115.145 E.01944
G1 X113.655 Y115.483 E.0164
G1 X113.066 Y115.833 E.01965
G1 X112.539 Y116.081 E.01672
G1 X111.933 Y116.3 E.01847
G1 X111.355 Y116.449 E.01714
G1 X110.668 Y116.556 E.01992
G1 X109.89 Y116.589 E.02235
G1 X109.295 Y116.552 E.01709
G1 X108.634 Y116.446 E.0192
G1 X108.081 Y116.304 E.01639
G1 X107.427 Y116.067 E.01993
G1 X106.742 Y115.728 E.02193
G1 X106.248 Y115.417 E.01675
G1 X105.706 Y114.998 E.01965
G1 X105.281 Y114.599 E.01672
G1 X104.854 Y114.116 E.01847
G1 X104.503 Y113.633 E.01714
G1 X104.15 Y113.035 E.01992
G1 X103.838 Y112.337 E.02193
G1 X103.649 Y111.757 E.0175
G1 X103.5 Y111.083 E.01979
G1 X103.432 Y110.536 E.01583
G1 X103.412 Y109.866 E.01922
G1 X103.448 Y109.295 E.01641
G1 X103.555 Y108.624 E.0195
G1 X103.763 Y107.873 E.02235
G1 X103.976 Y107.328 E.01678
G1 X104.279 Y106.731 E.01921
G1 X104.584 Y106.247 E.01641
G1 X104.992 Y105.717 E.0192
G1 X105.34 Y105.345 E.0146
G1 X105.681 Y105.664 F30000
G1 F3600
G1 X105.731 Y105.611 E.0021
G1 X106.206 Y105.194 E.01813
G1 X106.79 Y104.785 E.02045
M73 P5 R1
G1 X107.296 Y104.506 E.01658
G1 X107.834 Y104.273 E.01682
G1 X108.373 Y104.097 E.01627
G1 X108.983 Y103.962 E.01792
G1 X109.506 Y103.897 E.01512
G1 X110.159 Y103.879 E.01873
G1 X110.855 Y103.936 E.02004
G1 X111.382 Y104.035 E.01535
G1 X111.984 Y104.207 E.01797
G1 X112.458 Y104.392 E.01459
G1 X113.035 Y104.682 E.01854
G1 X113.464 Y104.951 E.01452
G1 X113.987 Y105.354 E.01894
G1 X114.389 Y105.73 E.0158
G1 X114.778 Y106.171 E.01686
G1 X115.097 Y106.607 E.0155
G1 X115.417 Y107.147 E.01799
G1 X115.652 Y107.646 E.01582
G1 X115.865 Y108.242 E.01815
G1 X116.03 Y108.935 E.02045
G1 X116.103 Y109.508 E.01657
G1 X116.122 Y110.133 E.01793
G1 X116.087 Y110.66 E.01514
G1 X115.988 Y111.278 E.01795
G1 X115.856 Y111.789 E.01514
G1 X115.643 Y112.377 E.01795
G1 X115.417 Y112.854 E.01514
G1 X115.098 Y113.392 E.01795
G1 X114.78 Y113.828 E.01546
G1 X114.289 Y114.37 E.02096
G1 X113.829 Y114.778 E.01766
G1 X113.404 Y115.09 E.01513
G1 X112.853 Y115.417 E.01837
G1 X112.354 Y115.653 E.01583
G1 X111.802 Y115.852 E.01684
G1 X111.254 Y115.993 E.01624
G1 X110.614 Y116.092 E.01855
G1 X109.887 Y116.123 E.02088
G1 X109.34 Y116.087 E.01573
G1 X108.722 Y115.988 E.01794
G1 X108.212 Y115.856 E.01512
G1 X107.603 Y115.635 E.01858
G1 X106.976 Y115.325 E.02007
G1 X106.521 Y115.038 E.01543
G1 X106.013 Y114.647 E.01837
G1 X105.611 Y114.27 E.01583
G1 X105.222 Y113.83 E.01684
G1 X104.889 Y113.372 E.01624
G1 X104.562 Y112.814 E.01856
G1 X104.276 Y112.176 E.02004
G1 X104.097 Y111.628 E.01654
G1 X103.961 Y111.011 E.01813
G1 X103.897 Y110.493 E.01496
G1 X103.878 Y109.867 E.01797
G1 X103.913 Y109.34 E.01514
G1 X104.013 Y108.715 E.01816
G1 X104.203 Y108.027 E.02047
G1 X104.399 Y107.525 E.01546
G1 X104.681 Y106.966 E.01795
G1 X104.962 Y106.519 E.01514
G1 X105.343 Y106.024 E.01792
G1 X105.653 Y105.694 E.013
G1 X105.994 Y106.012 F30000
G1 F3600
M73 P6 R1
G1 X106.06 Y105.941 E.00279
G1 X106.5 Y105.556 E.01677
G1 X107.03 Y105.185 E.01857
G1 X107.496 Y104.928 E.01526
G1 X107.993 Y104.711 E.01556
G1 X108.503 Y104.545 E.01537
G1 X109.069 Y104.42 E.01664
G1 X109.548 Y104.362 E.01384
G1 X110.154 Y104.346 E.01739
G1 X110.786 Y104.398 E.01819
G1 X111.268 Y104.487 E.01406
G1 X111.829 Y104.647 E.01672
G1 X112.262 Y104.815 E.01333
G1 X112.8 Y105.085 E.01728
G1 X113.192 Y105.33 E.01325
G1 X113.68 Y105.705 E.01764
G1 X114.059 Y106.06 E.0149
G1 X114.411 Y106.458 E.01525
G1 X114.712 Y106.87 E.01462
G1 X115.002 Y107.359 E.01632
G1 X115.224 Y107.83 E.01492
G1 X115.42 Y108.382 E.01679
G1 X115.57 Y109.011 E.01857
G1 X115.639 Y109.551 E.01562
G1 X115.655 Y110.131 E.01664
G1 X115.623 Y110.614 E.01388
G1 X115.53 Y111.189 E.01669
G1 X115.408 Y111.657 E.01388
G1 X115.21 Y112.204 E.01669
G1 X115.002 Y112.641 E.01388
G1 X114.705 Y113.141 E.01669
G1 X114.413 Y113.539 E.01414
G1 X113.956 Y114.043 E.01954
G1 X113.541 Y114.411 E.0159
G1 X113.141 Y114.705 E.01424
G1 X112.64 Y115.002 E.01669
G1 X112.169 Y115.224 E.01494
G1 X111.658 Y115.408 E.01558
G1 X111.153 Y115.538 E.01496
G1 X110.561 Y115.628 E.01717
G1 X109.885 Y115.656 E.01941
G1 X109.385 Y115.623 E.01436
G1 X108.811 Y115.53 E.01667
G1 X108.344 Y115.409 E.01385
G1 X107.78 Y115.202 E.01724
G1 X107.21 Y114.921 E.01822
G1 X106.793 Y114.66 E.01412
G1 X106.321 Y114.296 E.01708
G1 X105.941 Y113.94 E.01494
G1 X105.582 Y113.532 E.01558
G1 X105.276 Y113.11 E.01496
G1 X104.973 Y112.593 E.01719
G1 X104.714 Y112.015 E.01817
G1 X104.546 Y111.498 E.01559
G1 X104.42 Y110.925 E.01684
G1 X104.361 Y110.451 E.0137
G1 X104.345 Y109.869 E.01671
G1 X104.377 Y109.386 E.01388
G1 X104.471 Y108.807 E.01682
G1 X104.644 Y108.181 E.01862
G1 X104.822 Y107.721 E.01416
G1 X105.084 Y107.202 E.01669
G1 X105.341 Y106.792 E.01388
G1 X105.694 Y106.332 E.01664
G1 X105.966 Y106.042 E.0114
G1 X106.311 Y106.404 F30000
G1 F3600
M73 P7 R1
G1 X106.896 Y105.847 E.02317
G1 X107.607 Y105.396 E.02416
G1 X108.45 Y105.053 E.02611
G1 X109.387 Y104.854 E.02746
G1 X110.519 Y104.844 E.03249
G1 X111.416 Y105.006 E.02613
G1 X111.905 Y105.171 E.01482
G1 X112.363 Y105.377 E.01441
G1 X112.802 Y105.629 E.01453
G1 X113.194 Y105.908 E.01377
G1 X113.618 Y106.284 E.01627
G1 X114.115 Y106.843 E.02145
G1 X114.477 Y107.372 E.0184
G1 X114.731 Y107.871 E.01605
G1 X114.952 Y108.461 E.01807
G1 X115.147 Y109.389 E.02719
G1 X115.165 Y110.414 E.02941
G1 X114.955 Y111.509 E.03199
G1 X114.499 Y112.582 E.03344
G1 X114.169 Y113.093 E.01745
G1 X113.851 Y113.477 E.01428
G1 X113.168 Y114.101 E.02654
G1 X112.261 Y114.669 E.03071
G1 X111.858 Y114.848 E.01264
G1 X111.453 Y114.984 E.01227
G1 X110.597 Y115.15 E.02499
G1 X109.5 Y115.157 E.03147
G1 X108.311 Y114.905 E.03488
G1 X107.86 Y114.729 E.01389
G1 X107.382 Y114.482 E.01543
G1 X106.665 Y113.969 E.02528
G1 X105.846 Y113.103 E.03418
G1 X105.396 Y112.393 E.02412
G1 X105.053 Y111.55 E.02611
G1 X104.854 Y110.616 E.02738
G1 X104.855 Y109.37 E.03574
G1 X104.992 Y108.634 E.02148
G1 X105.17 Y108.107 E.01594
G1 X105.479 Y107.461 E.02057
G1 X106.023 Y106.678 E.02734
G1 X106.282 Y106.431 E.01025
G1 X106.593 Y106.766 F30000
M73 P8 R1
G1 F3600
G1 X107.222 Y106.18 E.02466
G1 X107.86 Y105.787 E.02148
G1 X108.632 Y105.481 E.02381
G1 X109.491 Y105.308 E.02515
G1 X110.53 Y105.31 E.02979
G1 X111.26 Y105.445 E.0213
G1 X111.711 Y105.594 E.01361
G1 X112.128 Y105.78 E.01311
G1 X112.53 Y106.007 E.01326
G1 X112.883 Y106.254 E.01234
G1 X113.265 Y106.588 E.01454
G1 X113.773 Y107.159 E.02194
G1 X114.06 Y107.58 E.0146
G1 X114.292 Y108.027 E.01446
G1 X114.52 Y108.635 E.0186
G1 X114.693 Y109.492 E.0251
G1 X114.699 Y110.43 E.0269
G1 X114.496 Y111.43 E.02926
G1 X114.068 Y112.404 E.03053
G1 X113.81 Y112.796 E.01345
G1 X113.544 Y113.126 E.01217
G1 X112.845 Y113.765 E.02718
G1 X112.01 Y114.277 E.02807
G1 X111.671 Y114.422 E.01059
G1 X111.299 Y114.544 E.01123
G1 X110.499 Y114.694 E.02334
G1 X109.495 Y114.691 E.02881
G1 X108.49 Y114.475 E.02949
G1 X108.022 Y114.292 E.01441
G1 X107.59 Y114.065 E.01399
G1 X106.928 Y113.585 E.02346
G1 X106.179 Y112.778 E.03159
G1 X105.787 Y112.14 E.02147
G1 X105.481 Y111.368 E.02381
G1 X105.308 Y110.511 E.02509
G1 X105.321 Y109.364 E.03289
G1 X105.432 Y108.787 E.01686
G1 X105.586 Y108.316 E.01419
G1 X105.904 Y107.652 E.02113
G1 X106.41 Y106.936 E.02516
G1 X106.564 Y106.793 E.00601
G1 X106.87 Y107.13 F30000
M73 P9 R1
G1 F3600
G1 X107.545 Y106.516 E.02616
G1 X108.106 Y106.182 E.01873
G1 X108.809 Y105.912 E.02161
G1 X109.591 Y105.763 E.02284
G1 X110.535 Y105.775 E.02707
G1 X111.108 Y105.885 E.01675
G1 X111.519 Y106.018 E.01238
G1 X111.896 Y106.183 E.0118
G1 X112.261 Y106.387 E.01201
G1 X112.576 Y106.605 E.01097
G1 X112.911 Y106.891 E.01263
G1 X113.432 Y107.475 E.02246
G1 X113.645 Y107.792 E.01096
G1 X113.853 Y108.183 E.0127
G1 X114.088 Y108.809 E.01917
G1 X114.238 Y109.592 E.02287
G1 X114.234 Y110.441 E.02435
G1 X114.038 Y111.345 E.02652
