; HEADER_BLOCK_START
; generated by OrcaSlicer 2.3.0 on 2025-11-15 at 11:53:03
; total layer number: 371
;_GP_TOTAL_LAYER_NUMBER_PLACEHOLDER
; filament_density: 1.04
; filament_diameter: 1.75
; max_z_height: 40.00
; HEADER_BLOCK_END

; THUMBNAIL_BLOCK_START

;
; THUMBNAIL_BLOCK_END

; THUMBNAIL_BLOCK_START

;
; THUMBNAIL_BLOCK_END

; external perimeters extrusion width = 0.42mm
; perimeters extrusion width = 0.45mm
; infill extrusion width = 0.45mm
; solid infill extrusion width = 0.42mm
; top infill extrusion width = 0.42mm
; support material extrusion width = 0.42mm
; first layer extrusion width = 0.50mm

; external perimeters extrusion width = 0.42mm
; perimeters extrusion width = 0.45mm
; infill extrusion width = 0.45mm
; solid infill extrusion width = 0.42mm
; top infill extrusion width = 0.42mm
; support material extrusion width = 0.42mm
; first layer extrusion width = 0.50mm

; EXECUTABLE_BLOCK_START
EXCLUDE_OBJECT_DEFINE NAME=рычаг_опорного_катка.stp_id_0_copy_0 CENTER=105.736,116.594 POLYGON=[[80.4158,123.094],[117.106,100.094],[129.006,100.094],[131.056,123.094],[131.056,133.094],[80.4158,133.094],[80.4158,123.094]]
EXCLUDE_OBJECT_DEFINE NAME=TrackChamfer007.stp_id_1_copy_0 CENTER=95.6827,91.691 POLYGON=[[83.1827,95.191],[83.1886,95.0026],[83.2064,94.815],[83.2358,94.6288],[83.2769,94.4449],[83.3295,94.2639],[83.3934,94.0866],[83.4682,93.9136],[83.5538,93.7457],[83.6497,93.5835],[83.7556,93.4276],[83.8712,93.2787],[83.9958,93.1373],[84.1291,93.0041],[84.2704,92.8794],[84.4193,92.7639],[94.6827,85.191],[96.6827,85.191],[106.946,92.7639],[107.095,92.8794],[107.236,93.0041],[107.37,93.1373],[107.494,93.2787],[107.61,93.4276],[107.716,93.5835],[107.812,93.7457],[107.897,93.9136],[107.972,94.0866],[108.036,94.2639],[108.088,94.4449],[108.13,94.6288],[108.159,94.815],[108.177,95.0026],[108.183,95.191],[108.177,95.3793],[108.159,95.567],[108.13,95.7531],[108.088,95.937],[108.036,96.118],[107.972,96.2953],[107.897,96.4683],[107.812,96.6362],[107.716,96.7984],[107.61,96.9543],[107.494,97.1032],[107.37,97.2446],[107.236,97.3779],[107.095,97.5025],[106.946,97.618],[106.79,97.724],[106.628,97.8199],[106.46,97.9055],[106.287,97.9803],[106.11,98.0441],[105.929,98.0967],[105.745,98.1378],[105.559,98.1673],[105.371,98.185],[105.183,98.191],[86.1827,98.191],[85.9943,98.185],[85.8067,98.1673],[85.6206,98.1378],[85.4366,98.0967],[85.2556,98.0441],[85.0783,97.9803],[84.9054,97.9055],[84.7374,97.8199],[84.5752,97.724],[84.4193,97.618],[84.2704,97.5025],[84.1291,97.3779],[83.9958,97.2446],[83.8712,97.1032],[83.7556,96.9543],[83.6497,96.7984],[83.5538,96.6362],[83.4682,96.4683],[83.3934,96.2953],[83.3295,96.118],[83.2769,95.937],[83.2358,95.7531],[83.2064,95.567],[83.1886,95.3793],[83.1827,95.191]]
M73 P0 R39
M106 S0
M106 P2 S0
;TYPE:Custom
M140 S0
M104 S0 
START_PRINT EXTRUDER_TEMP=260 BED_TEMP=105
G90
G21
M83 ; use relative distances for extrusion
; Filament gcode
M106 S0
M106 P2 S0
;LAYER_CHANGE
;Z:0.16
;HEIGHT:0.16
;BEFORE_LAYER_CHANGE
;0.16
G92 E0

G1 E-.6 F2400
;_SET_FAN_SPEED_CHANGING_LAYER
SET_VELOCITY_LIMIT ACCEL=500 ACCEL_TO_DECEL=250
SET_VELOCITY_LIMIT SQUARE_CORNER_VELOCITY=9
EXCLUDE_OBJECT_START NAME=рычаг_опорного_катка.stp_id_0_copy_0
G1 Z.36 F30000
G1 X82.208 Y124.644
G1 Z.36
G1 Z.16
G1 E.6 F2400
;TYPE:Support
;WIDTH:0.5
G1 F3600
G1 X81.957 Y124.644 E.00718
G1 X82.208 Y124.393 E.01016
G1 X82.208 Y124.574 E.00518
G1 E-.07655 F2400
;WIPE_START
G1 F3600
G1 X82.208 Y124.393 E-.12039
G1 X81.957 Y124.644 E-.23611
G1 X82.208 Y124.644 E-.16696
;WIPE_END
G1 Z.36 F30000
G1 X85.617 Y122.842 Z.36
G1 Z.16
G1 E.6 F2400
;TYPE:Support interface
;WIDTH:0.42
G1 F3600
G1 X85.759 Y122.701 E.00475
G1 X86.102 Y122.701 E.00815
G1 X86.251 Y122.552 E.00502
G1 X86.251 Y122.365 E.00443
G1 X87.137 Y122.365 E.02104
G1 X87.137 Y122.551 E.00442
G1 X87.152 Y122.551 E.00035
G1 X88.023 Y122.551 E.02069
G1 X88.023 Y122.365 E.00442
G1 X88.422 Y122.365 E.00949
G1 X88.422 Y122.551 E.00442
G1 X88.215 Y122.551 E.0049
G1 X89.726 Y122.644 F30000
;TYPE:Support
;WIDTH:0.5
G1 F3600
G1 X88.865 Y122.644 E.02471
G1 X88.865 Y121.922 E.0207
G1 X84.679 Y121.922 E.12007
G1 X85.607 Y120.994 E.03766
G1 X91.376 Y120.994 E.16549
G1 X89.776 Y122.594 E.06492
G1 X90.214 Y121.86 F30000
G1 F3600
G1 X90.214 Y121.413 E.01282
G1 X89.696 Y121.413 E.01484
G1 X89.696 Y122.081 E.01917
G1 X89.553 Y122.225 E.00582
G1 X89.284 Y122.225 E.00771
G1 X89.284 Y121.503 E.0207
G1 X89.179 Y121.503 E.00301
G1 X89.179 Y121.413 E.00258
G1 X88.662 Y121.413 E.01484
G1 X88.662 Y121.503 E.00258
G1 X88.144 Y121.503 E.01484
G1 X88.144 Y121.413 E.00258
G1 X87.627 Y121.413 E.01484
G1 X87.627 Y121.503 E.00258
G1 X87.109 Y121.503 E.01484
G1 X87.109 Y121.413 E.00258
G1 X86.592 Y121.413 E.01484
G1 X86.592 Y121.503 E.00258
G1 X86.074 Y121.503 E.01484
G1 X86.074 Y121.203 E.00859
;WIPE_START
G1 X86.074 Y121.503 E-.08989
G1 X86.592 Y121.503 E-.15522
G1 X86.592 Y121.413 E-.02703
G1 X87.109 Y121.413 E-.15522
G1 X87.109 Y121.503 E-.02703
G1 X87.595 Y121.503 E-.14561
;WIPE_END
G1 Z.36 F30000
G1 X86.847 Y124.644 Z.36
G1 Z.16
G1 E.6 F2400
G1 F3600
G1 X85.972 Y124.644 E.0251
G1 X85.972 Y123.144 E.04302
G1 X86.285 Y123.144 E.009
G1 X86.435 Y122.994 E.00608
G1 X86.847 Y122.994 E.0118
G1 X86.847 Y124.574 E.04532
;WIPE_START
G1 X86.847 Y122.994 E-.47398
G1 X86.435 Y122.994 E-.12337
G1 X86.429 Y123 E-.00265
;WIPE_END
G1 Z.36 F30000
G1 X82.208 Y131.794 Z.36
G1 Z.16
G1 E.6 F2400
G1 F3600
G1 X81.957 Y131.544 E.01016
G1 X82.208 Y131.544 E.00718
G1 X82.208 Y131.724 E.00518
G1 E-.07655 F2400
;WIPE_START
G1 F3600
G1 X82.208 Y131.544 E-.12039
G1 X81.957 Y131.544 E-.16696
G1 X82.208 Y131.794 E-.23611
;WIPE_END
G1 Z.36 F30000
G1 X82.709 Y133.908 Z.36
G1 Z.16
G1 E.6 F2400
;TYPE:Support interface
;WIDTH:0.42
G1 F3600
G1 X82.709 Y122.365 E.27421
G1 X83.594 Y122.365 E.02104
G1 X83.594 Y133.908 E.27421
G1 X84.48 Y133.908 E.02104
G1 X84.48 Y122.365 E.27421
G1 X85.366 Y122.365 E.02104
G1 X85.366 Y133.908 E.27421
G1 X86.251 Y133.908 E.02104
G1 X86.251 Y133.636 E.00646
G1 X86.252 Y133.637 E.00002
G1 X87.137 Y133.637 E.02102
G1 X87.137 Y133.908 E.00644
G1 X88.023 Y133.908 E.02104
G1 X88.023 Y133.637 E.00644
G1 X88.422 Y133.637 E.00949
G1 X88.422 Y133.908 E.00644
G1 X88.215 Y133.908 E.0049
G1 X86.847 Y133.194 F30000
;TYPE:Support
;WIDTH:0.5
G1 F3600
G1 X86.435 Y133.194 E.0118
G1 X86.285 Y133.044 E.00608
G1 X85.972 Y133.044 E.009
G1 X85.972 Y131.544 E.04302
G1 X86.847 Y131.544 E.0251
G1 X86.847 Y133.124 E.04532
;WIPE_START
G1 X86.847 Y131.544 E-.47398
G1 X86.427 Y131.544 E-.12602
;WIPE_END
G1 Z.36 F30000
G1 X91.376 Y135.194 Z.36
G1 Z.16
G1 E.6 F2400
G1 F3600
G1 X85.607 Y135.194 E.16549
G1 X84.764 Y134.351 E.0342
G1 X88.865 Y134.351 E.11763
G1 X88.865 Y133.544 E.02315
G1 X89.726 Y133.544 E.02471
G1 X91.327 Y135.144 E.06492
G1 X90.214 Y134.984 F30000
G1 F3600
G1 X90.214 Y134.624 E.01034
G1 X89.696 Y134.106 E.02099
G1 X89.696 Y134.775 E.01917
G1 X89.179 Y134.775 E.01484
G1 X89.179 Y134.77 E.00014
G1 X88.662 Y134.77 E.01484
G1 X88.662 Y134.775 E.00014
G1 X88.144 Y134.775 E.01484
G1 X88.144 Y134.77 E.00014
G1 X87.627 Y134.77 E.01484
G1 X87.627 Y134.775 E.00014
G1 X87.109 Y134.775 E.01484
G1 X87.109 Y134.77 E.00014
G1 X86.592 Y134.77 E.01484
G1 X86.592 Y134.775 E.00014
G1 X86.074 Y134.775 E.01484
G1 X86.074 Y134.56 E.00615
;WIPE_START
G1 X86.074 Y134.775 E-.0643
G1 X86.592 Y134.775 E-.15522
G1 X86.592 Y134.77 E-.00143
G1 X87.109 Y134.77 E-.15522
G1 X87.109 Y134.775 E-.00143
G1 X87.627 Y134.775 E-.15522
G1 X87.627 Y134.77 E-.00143
G1 X87.846 Y134.77 E-.06574
;WIPE_END
G1 Z.36 F30000
G1 X122.607 Y134.351 Z.36
G1 Z.16
G1 E.6 F2400
G1 F3600
G1 X126.708 Y134.351 E.11763
G1 X125.865 Y135.194 E.0342
G1 X120.095 Y135.194 E.16549
G1 X121.745 Y133.544 E.06693
G1 X122.607 Y133.544 E.02471
G1 X122.607 Y134.281 E.02114
G1 X125.397 Y134.984 F30000
G1 F3600
G1 X125.397 Y134.77 E.00615
G1 X124.88 Y134.77 E.01484
G1 X124.88 Y134.775 E.00014
G1 X124.362 Y134.775 E.01484
G1 X124.362 Y134.77 E.00014
G1 X123.845 Y134.77 E.01484
G1 X123.845 Y134.775 E.00014
G1 X123.328 Y134.775 E.01484
G1 X123.328 Y134.77 E.00014
G1 X122.81 Y134.77 E.01484
G1 X122.81 Y134.775 E.00014
G1 X122.293 Y134.775 E.01484
G1 X122.293 Y134.77 E.00014
G1 X122.188 Y134.77 E.00301
G1 X122.188 Y133.963 E.02315
G1 X121.919 Y133.963 E.00771
G1 X121.775 Y134.106 E.00582
G1 X121.775 Y134.775 E.01917
G1 X121.258 Y134.775 E.01484
G1 X121.258 Y134.327 E.01282
;WIPE_START
G1 X121.258 Y134.775 E-.13413
G1 X121.775 Y134.775 E-.15522
G1 X121.775 Y134.106 E-.20045
G1 X121.919 Y133.963 E-.0609
G1 X122.083 Y133.963 E-.0493
;WIPE_END
G1 Z.36 F30000
G1 X123.256 Y133.637 Z.36
G1 Z.16
G1 E.6 F2400
;TYPE:Support interface
;WIDTH:0.42
G1 F3600
G1 X123.05 Y133.637 E.0049
G1 X123.05 Y133.908 E.00644
G1 X123.449 Y133.908 E.00949
G1 X123.449 Y133.637 E.00644
G1 X124.32 Y133.637 E.02069
G1 X124.335 Y133.637 E.00035
G1 X124.335 Y133.908 E.00644
G1 X125.22 Y133.908 E.02104
G1 X125.22 Y133.636 E.00646
G1 X125.37 Y133.487 E.00502
G1 X125.713 Y133.487 E.00815
G1 X125.823 Y133.376 E.00372
G1 X125.5 Y133.044 F30000
;TYPE:Support
;WIDTH:0.5
G1 F3600
G1 X125.186 Y133.044 E.009
G1 X125.036 Y133.194 E.00608
G1 X124.625 Y133.194 E.0118
G1 X124.625 Y131.544 E.04732
G1 X125.5 Y131.544 E.0251
G1 X125.5 Y132.974 E.04102
;WIPE_START
G1 X125.5 Y131.544 E-.42899
G1 X124.93 Y131.544 E-.17101
;WIPE_END
G1 Z.36 F30000
G1 X129.264 Y131.794 Z.36
G1 Z.16
G1 E.6 F2400
G1 F3600
G1 X129.264 Y131.544 E.00718
G1 X129.515 Y131.544 E.00718
G1 X129.313 Y131.745 E.00815
G1 E-.07658 F2400
;WIPE_START
G1 F3600
G1 X129.515 Y131.544 E-.18953
G1 X129.264 Y131.544 E-.16695
G1 X129.264 Y131.794 E-.16695
;WIPE_END
G1 Z.36 F30000
G1 X128.763 Y122.365 Z.36
G1 Z.16
G1 E.6 F2400
;TYPE:Support interface
;WIDTH:0.42
G1 F3600
G1 X128.763 Y133.908 E.27421
G1 X127.877 Y133.908 E.02104
G1 X127.877 Y122.365 E.27421
G1 X126.992 Y122.365 E.02104
G1 X126.992 Y133.908 E.27421
G1 X126.106 Y133.908 E.02104
G1 X126.106 Y122.365 E.27421
G1 X125.22 Y122.365 E.02104
G1 X125.22 Y122.552 E.00443
G1 X125.22 Y122.551 E.00002
G1 X124.335 Y122.551 E.02102
G1 X124.335 Y122.365 E.00442
G1 X123.449 Y122.365 E.02104
G1 X123.449 Y122.551 E.00442
G1 X123.05 Y122.551 E.00949
G1 X123.05 Y122.365 E.00442
G1 X123.256 Y122.365 E.0049
G1 X125.036 Y122.994 F30000
;TYPE:Support
;WIDTH:0.5
G1 F3600
G1 X125.186 Y123.144 E.00608
G1 X125.5 Y123.144 E.009
G1 X125.5 Y124.644 E.04302
G1 X124.625 Y124.644 E.0251
G1 X124.625 Y122.994 E.04732
G1 X124.966 Y122.994 E.00979
;WIPE_START
G1 X124.625 Y122.994 E-.10242
G1 X124.625 Y124.644 E-.49494
G1 X124.634 Y124.644 E-.00265
;WIPE_END
G1 Z.36 F30000
G1 X130.764 Y111.765 Z.36
G1 Z.16
G1 E.6 F2400
G1 F3600
G1 X133.65 Y111.765 E.08277
G1 X133.65 Y127.194 E.44254
G1 X129.264 Y127.194 E.12579
G1 X129.264 Y125.444 E.05019
G1 X129.264 Y121.922 E.10101
G1 X122.607 Y121.922 E.19095
G1 X122.607 Y122.644 E.0207
G1 X112.45 Y122.644 E.29134
G1 X112.45 Y111.765 E.31203
G1 X115.336 Y111.765 E.08277
G1 X115.336 Y97.337 E.41386
G1 X130.764 Y97.337 E.44254
G1 X130.764 Y111.696 E.41186
G1 X133.158 Y126.984 F30000
G1 F3600
G1 X133.158 Y112.184 E.42451
G1 X132.641 Y112.184 E.01484
G1 X132.641 Y126.774 E.4185
G1 X132.123 Y126.774 E.01484
G1 X132.123 Y112.184 E.4185
G1 X131.606 Y112.184 E.01484
G1 X131.606 Y126.774 E.4185
G1 X131.089 Y126.774 E.01484
G1 X131.089 Y112.184 E.4185
G1 X130.571 Y112.184 E.01484
G1 X130.571 Y126.774 E.4185
G1 X130.054 Y126.774 E.01484
G1 X130.054 Y97.756 E.83236
G1 X129.536 Y97.756 E.01484
G1 X129.536 Y121.503 E.68115
G1 X129.019 Y121.503 E.01484
G1 X129.019 Y97.756 E.68115
G1 X128.502 Y97.756 E.01484
G1 X128.502 Y121.503 E.68115
G1 X127.984 Y121.503 E.01484
G1 X127.984 Y97.756 E.68115
G1 X127.467 Y97.756 E.01484
G1 X127.467 Y121.503 E.68115
G1 X126.949 Y121.503 E.01484
G1 X126.949 Y97.756 E.68115
G1 X126.432 Y97.756 E.01484
G1 X126.432 Y121.503 E.68115
G1 X125.915 Y121.503 E.01484
G1 X125.915 Y97.756 E.68115
G1 X125.397 Y97.756 E.01484
M73 P1 R39
G1 X125.397 Y121.503 E.68115
G1 X124.88 Y121.503 E.01484
G1 X124.88 Y97.756 E.68115
G1 X124.362 Y97.756 E.01484
G1 X124.362 Y121.503 E.68115
G1 X123.845 Y121.503 E.01484
G1 X123.845 Y97.756 E.68115
G1 X123.328 Y97.756 E.01484
G1 X123.328 Y121.503 E.68115
G1 X122.81 Y121.503 E.01484
G1 X122.81 Y97.756 E.68115
G1 X122.293 Y97.756 E.01484
G1 X122.293 Y121.503 E.68115
G1 X122.188 Y121.503 E.00301
G1 X122.188 Y122.225 E.0207
G1 X121.775 Y122.225 E.01183
G1 X121.775 Y97.756 E.70185
G1 X121.258 Y97.756 E.01484
G1 X121.258 Y122.225 E.70185
G1 X120.741 Y122.225 E.01484
G1 X120.741 Y97.756 E.70185
G1 X120.223 Y97.756 E.01484
G1 X120.223 Y122.225 E.70185
G1 X119.706 Y122.225 E.01484
G1 X119.706 Y97.756 E.70185
G1 X119.188 Y97.756 E.01484
G1 X119.188 Y122.225 E.70185
G1 X118.671 Y122.225 E.01484
G1 X118.671 Y97.756 E.70185
G1 X118.154 Y97.756 E.01484
G1 X118.154 Y122.225 E.70185
G1 X117.636 Y122.225 E.01484
G1 X117.636 Y97.756 E.70185
G1 X117.119 Y97.756 E.01484
G1 X117.119 Y122.225 E.70185
G1 X116.601 Y122.225 E.01484
G1 X116.601 Y97.756 E.70185
G1 X116.084 Y97.756 E.01484
G1 X116.084 Y122.225 E.70185
G1 X115.567 Y122.225 E.01484
G1 X115.567 Y112.184 E.28799
G1 X115.049 Y112.184 E.01484
G1 X115.049 Y122.225 E.28799
G1 X114.532 Y122.225 E.01484
G1 X114.532 Y112.184 E.28799
G1 X114.014 Y112.184 E.01484
G1 X114.014 Y122.225 E.28799
G1 X113.497 Y122.225 E.01484
G1 X113.497 Y112.184 E.28799
G1 X112.979 Y112.184 E.01484
G1 X112.979 Y122.434 E.294
;WIPE_START
G1 X112.979 Y120.434 E-.6
;WIPE_END
G1 Z.36 F30000
G1 X122.844 Y124.425 Z.36
G1 Z.16
G1 E.6 F2400
;TYPE:Inner wall
;WIDTH:0.499999
G1 F3600
G1 X122.844 Y131.762 E.21046
G1 X88.628 Y131.762 E.98144
G1 X88.628 Y124.425 E.21046
G1 X122.804 Y124.425 E.98029
G1 X123.309 Y123.959 F30000
G1 F3600
G1 X123.309 Y132.228 E.23718
G1 X88.162 Y132.228 E1.00815
G1 X88.162 Y123.959 E.23718
G1 X123.269 Y123.959 E1.00701
G1 X123.775 Y123.494 F30000
;TYPE:Outer wall
G1 F3600
G1 X123.775 Y132.694 E.26389
G1 X87.697 Y132.694 E1.03487
G1 X87.697 Y123.494 E.26389
G1 X123.735 Y123.494 E1.03372
;WIPE_START
G1 X123.744 Y125.494 E-.6
;WIPE_END
G1 Z.36 F30000
G1 X122.704 Y125.512 Z.36
G1 Z.16
G1 E.6 F2400
;TYPE:Bottom surface
;WIDTH:0.502936
G1 F6300
G1 X121.966 Y124.774 E.03013
G1 X121.303 Y124.774 E.01913
G1 X122.494 Y125.966 E.04862
G1 X122.494 Y126.628 E.01913
G1 X120.641 Y124.774 E.07568
G1 X119.978 Y124.774 E.01913
G1 X122.494 Y127.291 E.10273
G1 X122.494 Y127.954 E.01913
G1 X119.315 Y124.774 E.12978
G1 X118.653 Y124.774 E.01913
G1 X122.494 Y128.616 E.15683
G1 X122.494 Y129.279 E.01913
G1 X117.99 Y124.774 E.18388
G1 X117.327 Y124.774 E.01913
G1 X122.494 Y129.942 E.21094
G1 X122.494 Y130.604 E.01913
G1 X116.664 Y124.774 E.23799
G1 X116.002 Y124.774 E.01913
G1 X122.494 Y131.267 E.26504
G1 X122.494 Y131.413 E.00422
G1 X121.978 Y131.413 E.01491
G1 X115.339 Y124.774 E.271
G1 X114.676 Y124.774 E.01913
G1 X121.315 Y131.413 E.271
G1 X120.652 Y131.413 E.01913
G1 X114.014 Y124.774 E.271
G1 X113.351 Y124.774 E.01913
G1 X119.99 Y131.413 E.271
G1 X119.327 Y131.413 E.01913
G1 X112.688 Y124.774 E.271
G1 X112.026 Y124.774 E.01913
G1 X118.664 Y131.413 E.271
G1 X118.002 Y131.413 E.01913
G1 X111.363 Y124.774 E.271
G1 X110.7 Y124.774 E.01913
M73 P1 R38
G1 X117.339 Y131.413 E.271
G1 X116.676 Y131.413 E.01913
G1 X110.037 Y124.774 E.271
G1 X109.375 Y124.774 E.01913
G1 X116.014 Y131.413 E.271
G1 X115.351 Y131.413 E.01913
G1 X108.712 Y124.774 E.271
G1 X108.049 Y124.774 E.01913
G1 X114.688 Y131.413 E.271
G1 X114.025 Y131.413 E.01913
M73 P2 R38
G1 X107.387 Y124.774 E.271
G1 X106.724 Y124.774 E.01913
G1 X113.363 Y131.413 E.271
G1 X112.7 Y131.413 E.01913
G1 X106.061 Y124.774 E.271
G1 X105.399 Y124.774 E.01913
G1 X112.037 Y131.413 E.271
G1 X111.375 Y131.413 E.01913
G1 X104.736 Y124.774 E.271
G1 X104.073 Y124.774 E.01913
G1 X110.712 Y131.413 E.271
G1 X110.049 Y131.413 E.01913
G1 X103.41 Y124.774 E.271
G1 X102.748 Y124.774 E.01913
G1 X109.387 Y131.413 E.271
G1 X108.724 Y131.413 E.01913
G1 X102.085 Y124.774 E.271
G1 X101.422 Y124.774 E.01913
G1 X108.061 Y131.413 E.271
G1 X107.398 Y131.413 E.01913
G1 X100.76 Y124.774 E.271
G1 X100.097 Y124.774 E.01913
G1 X106.736 Y131.413 E.271
G1 X106.073 Y131.413 E.01913
